Adwaita++-Dark/mimetypes/16/audiobook.svg

<svg height="16" width="16" xmlns="http://www.w3.org/2000/svg">
  <path d="m0 1v13h6c.9443134.017743 1.583324.778845 1.6015625.800781.0002643.000318.0058594.007813.0058594.007813v.001953l.3847656.507812.0078125-.009765.0078125.009765.3847656-.507812.0058594-.009766c.0182385-.021936.6572491-.783038 1.6015625-.800781h6v-13h-3-3c-.259 0-.4897187.0289844-.6972656.078125-.4150938.0982812-.7350781.2778125-.9824219.4648438-.1236719.0935156-.2290625.1885937-.3203125.2773437-.365-.355-.964-.8203125-2-.8203125h-3zm1 1h5c.983 0 1.5996094.7988281 1.5996094.7988281l.4003906.5351563.4003906-.5351563s.471416-.6107383 1.2480469-.7636719c.1109473-.0218476.2286875-.0351562.3515625-.0351562v7l3-1v-6h2v11h-5-.0078125c-.00793.000116-.0136053.001784-.0214844.001953-.2131532.000435-.4225911.03046-.6269531.078125-.0559332.012984-.1036745.031234-.15625.046875-.1303729.038586-.2576096.081592-.3808594.138672-.0604456.028479-.1129393.058805-.1679687.089844-.1031505.056642-.2031583.115939-.2988281.185547-.0464129.034316-.0814095.067191-.1230469.101562-.0722398.059141-.1502783.111033-.2167969.177734-.0665186-.066701-.1445571-.118593-.2167969-.177734-.0416374-.034371-.076634-.067246-.1230469-.101562-.0956698-.069608-.1956776-.128905-.2988281-.185547-.0550294-.031039-.1075231-.061365-.1679687-.089844-.1232498-.05708-.2504865-.100086-.3808594-.138672-.0525755-.015641-.1003168-.033891-.15625-.046875-.204362-.047665-.4137999-.07769-.6269531-.078125-.0098585-.00002-.019428-.002037-.0292969-.001953h-5zm2 2v1h3v-1zm0 2v1h3v-1zm0 2v1h3v-1zm0 2v1h3v-1z" fill="#e6ddff"/>
</svg>

<svg xmlns="http://www.w3.org/2000/svg" width="16" height="16" version="1.1">
 <g fill="#E6DDFF" font-family="sans-serif" font-weight="400">
  <path d="M 0 1 L 0 14 L 6 14 C 6.9443134 14.017743 7.583324 14.778845 7.6015625 14.800781 C 7.6018268 14.801099 7.6074219 14.808594 7.6074219 14.808594 L 7.6074219 14.810547 L 7.9921875 15.318359 L 8 15.308594 L 8.0078125 15.318359 L 8.3925781 14.810547 L 8.3984375 14.800781 C 8.416676 14.778845 9.0556866 14.017743 10 14 L 16 14 L 16 1 L 13 1 L 10 1 C 9.741 1 9.5102813 1.0289844 9.3027344 1.078125 C 8.8876406 1.1764062 8.5676563 1.3559375 8.3203125 1.5429688 C 8.1966406 1.6364844 8.09125 1.7315625 8 1.8203125 C 7.635 1.4653125 7.036 1 6 1 L 3 1 L 0 1 z M 1 2 L 6 2 C 6.983 2 7.5996094 2.7988281 7.5996094 2.7988281 L 8 3.3339844 L 8.4003906 2.7988281 C 8.4003906 2.7988281 8.8718066 2.1880898 9.6484375 2.0351562 C 9.7593848 2.0133086 9.877125 2 10 2 L 10 9 L 13 8 L 13 2 L 15 2 L 15 13 L 10 13 L 9.9921875 13 C 9.9842575 13.000116 9.9785822 13.001784 9.9707031 13.001953 C 9.7575499 13.002388 9.548112 13.032413 9.34375 13.080078 C 9.2878168 13.093062 9.2400755 13.111312 9.1875 13.126953 C 9.0571271 13.165539 8.9298904 13.208545 8.8066406 13.265625 C 8.746195 13.294104 8.6937013 13.32443 8.6386719 13.355469 C 8.5355214 13.412111 8.4355136 13.471408 8.3398438 13.541016 C 8.2934309 13.575332 8.2584343 13.608207 8.2167969 13.642578 C 8.1445571 13.701719 8.0665186 13.753611 8 13.820312 C 7.9334814 13.753611 7.8554429 13.701719 7.7832031 13.642578 C 7.7415657 13.608207 7.7065691 13.575332 7.6601562 13.541016 C 7.5644864 13.471408 7.4644786 13.412111 7.3613281 13.355469 C 7.3062987 13.32443 7.253805 13.294104 7.1933594 13.265625 C 7.0701096 13.208545 6.9428729 13.165539 6.8125 13.126953 C 6.7599245 13.111312 6.7121832 13.093062 6.65625 13.080078 C 6.451888 13.032413 6.2424501 13.002388 6.0292969 13.001953 C 6.0194384 13.001933 6.0098689 12.999916 6 13 L 1 13 L 1 2 z M 3 4 L 3 5 L 6 5 L 6 4 L 3 4 z M 3 6 L 3 7 L 6 7 L 6 6 L 3 6 z M 3 8 L 3 9 L 6 9 L 6 8 L 3 8 z M 3 10 L 3 11 L 6 11 L 6 10 L 3 10 z"/>
 </g>
</svg>
